svgs/sharp-solid/axe-battle.svg

<svg xmlns="http://www.w3.org/2000/svg" viewBox="0 0 512 512"><!--! Font Awesome Pro 6.6.0 by @fontawesome - https://fontawesome.com License - https://fontawesome.com/license (Commercial License) Copyright 2024 Fonticons, Inc. --><path d="M0 192C0 64 88 0 88 0s26.2 83.8 104 115.8l0 152.4C114.2 300.2 88 384 88 384s-88-64-88-192zm320 76.2l0-152.4C397.8 83.8 424 0 424 0s73.7 53.6 86.2 160.9L448 192l62.2 31.1C497.7 330.4 424 384 424 384s-26.2-83.8-104-115.8zM288 64l0 416 0 32-64 0 0-32 0-416 0-32 64 0 0 32z"/></svg>

<svg xmlns="http://www.w3.org/2000/svg" viewBox="0 0 512 512"><!--! Font Awesome Pro 6.4.2 by @fontawesome - https://fontawesome.com License - https://fontawesome.com/license (Commercial License) Copyright 2023 Fonticons, Inc. --><path d="M0 192C0 64 88 0 88 0s26.2 83.8 104 115.8V268.2C114.2 300.2 88 384 88 384s-88-64-88-192zm320 76.2V115.8C397.8 83.8 424 0 424 0s73.7 53.6 86.2 160.9L448 192l62.2 31.1C497.7 330.4 424 384 424 384s-26.2-83.8-104-115.8zM288 64V480v32H224V480 64 32h64V64z"/></svg>
